X:2006
T:Miss Devon's Reel
P:Mrs Hood's Strathspey
C:Abraham Mackintosh
R:Strathspey (8x32)
B:RSCDS 20-6
Z:Anselm Lingnau <anselm@strathspey.org>
M:4/4
L:1/8
K:A
%
E|"A"[AEC]>B A>A "A7"[cE]<ee>c|"D"[dF]<ff>a "A"e<c"E"[BG]>c|\
  "A"A>B A>B c<e "D"[fD]>a|"E"[gB]f/e/ "B7"B^d "E"eEE E|
  "A"[AEC]>B A>A "A7"[cE]<ee>c|"D"[dF]<ff>a "A"e<c"E"[BG]>c|\
  "A"A>B A>B c<e "D"[fD]>a|"E"[gB]f/e/ "B7"B^d "E"eEE||
e|"A"[ec]>f "A7"[eA]>=g "D"[fA]>d "E"[BG]>d|"A"[eE]>c "F#m"[AF]>c "E"B>G E>d|\
  "A"[ec]>f "A7"[eA]>=g "D"[fA]>d "E"[BG]>d|"E"[dF]>B [GE]>B "A"[A2C2] Ac|
  "A"[ec]>f "A7"[eA]>=g "D"[fA]>d "E"[BG]>d|"A"[eE]>c "F#m"[AF]>c "E"B>G E>G|\
  "D"F>A "A"E>A "Bm7"D>A "A"C>e|"Bm"f>d "E7"Bg "A"aA A|]
